src/img/icons/results-phone.svg

<?xml version="1.0" encoding="UTF-8"?>
<svg width="16px" height="16px" viewBox="0 0 16 16" version="1.1" xmlns="http://www.w3.org/2000/svg" xmlns:xlink="http://www.w3.org/1999/xlink">
    <!-- Generator: Sketch 61.2 (89653) - https://sketch.com -->
    <title>search/phone</title>
    <desc>Created with Sketch.</desc>
    <g id="Page-1" stroke="none" stroke-width="1" fill="none" fill-rule="evenodd">
        <g id="icon/S/Search/Phone-Copy">
            <g id="icon">
                <g id="Group">
                    <rect id="Rectangle" x="0" y="0" width="16" height="16"></rect>
                    <path d="M6.64074599,8.3874448 L7.46261396,9.2110642 L8.00786437,9.74225907 C8.85904856,10.551795 9.53130989,11.0763254 9.81954909,10.900798 L9.83645404,10.8893684 L10.7767311,10.0724616 C10.8633623,9.99872523 10.9526978,9.92516323 11.0487944,9.85203724 C11.3855436,9.55885834 12.4055203,9.64907718 13.1004942,10.3085241 L14.3412514,11.5482318 C14.8287356,12.035716 14.9964322,12.5618583 15,13.0153637 C14.9989511,13.2797067 14.9039983,13.5379938 14.7179744,13.752635 C14.6293916,13.854845 14.5312268,13.9564371 14.4239962,14.0505618 L14.358574,14.1060857 L14.2187554,14.2161693 C12.8205006,15.1054215 11.8261162,15.0925464 10.594017,14.8800826 C9.64119361,14.7157772 8.11444207,13.8549702 7.47126866,13.4731794 L7.17014383,13.290523 L6.87323825,13.0712763 C6.38624152,12.7073328 5.41040257,11.959377 4.79405755,11.3618878 L4.6381122,11.2059425 C4.15864554,10.7113446 3.58228494,9.98524821 3.18522518,9.46603557 L2.70658738,8.82524014 L2.5852933,8.62662695 C2.24186193,8.05529995 1.29326288,6.411231 1.11991741,5.405983 L1.07475006,5.12558017 C0.910810851,4.0185118 0.962982554,3.0719413 1.78383065,1.78124461 L1.89391431,1.641426 C2.00295072,1.50842238 2.12471297,1.38832491 2.24736504,1.28202556 C2.46200616,1.09600171 2.72029333,1.00104891 2.98463627,1 C3.43814166,1.0035678 3.96428399,1.17126444 4.45176818,1.65874864 L5.65202698,2.85900744 C6.34723743,3.55421788 6.44689027,4.60785347 6.14796276,4.95120556 C6.07483677,5.04730219 6.00127477,5.13663774 5.92753836,5.22326886 L5.1106316,6.16354596 C4.87207409,6.48275085 5.60393497,7.33366477 6.64074599,8.3874448 L6.64074599,8.3874448 Z" id="Path" fill="#909099" fill-rule="nonzero"></path>
                </g>
            </g>
        </g>
    </g>
</svg>

<svg xmlns="http://www.w3.org/2000/svg" width="16" height="17" viewBox="0 0 16 17">
    <g fill="none" fill-rule="evenodd">
        <path d="M0 0H16V16H0z" transform="translate(0 1)"/>
        <path fill="#909099" fill-rule="nonzero" d="M6.64 8.387l.823.824.545.531c.851.81 1.523 1.334 1.812 1.159l.016-.012.94-.817c.087-.073.177-.147.273-.22.337-.293 1.357-.203 2.051.457l1.241 1.24c.488.487.655 1.013.659 1.466-.001.265-.096.523-.282.738-.089.102-.187.203-.294.298l-.065.055-.14.11c-1.398.89-2.393.877-3.625.664-.953-.164-2.48-1.025-3.123-1.407l-.3-.182-.298-.22c-.487-.364-1.463-1.112-2.079-1.71l-.156-.155c-.48-.495-1.056-1.22-1.453-1.74l-.478-.64-.122-.2c-.343-.57-1.292-2.215-1.465-3.22l-.045-.28C.91 4.019.963 3.072 1.784 1.78l.11-.14c.109-.133.23-.253.353-.359.215-.186.473-.281.738-.282.453.004.98.171 1.467.659l1.2 1.2c.695.695.795 1.749.496 2.092-.073.096-.147.186-.22.272l-.817.94c-.239.32.493 1.17 1.53 2.224z" transform="translate(0 1)"/>
    </g>
</svg>
